src/img/dot1.svg

<svg height="15" viewBox="0 0 15 15" width="15" xmlns="http://www.w3.org/2000/svg"><path d="m5.5715725 29.4087449c-3.25450254-.4322252-6.26866046-3.2648441-5.42942433-6.7458009 1.00077923-3.0873231 3.43180594-4.966731 5.30728198-7.0622515.54184021-.3249257 1.15233874-.5242457 1.7848543-.5827323 1.29047944-.1050049 2.57593839.2529626 3.61698945 1.0072392.5239348.3721027.9694618.8399299 1.3120453 1.3777179 2.3916259 3.5349849 4.9605553 9.6903353 0 12.1177431-1.4626813.5744641-3.08346327.6344725-4.58624817.1698027-.61071173-.0578873-1.21354331-.1543661-2.00549853-.2817182z" fill="#f7b71b" transform="translate(0 -15)"/></svg>

<?xml version="1.0" encoding="UTF-8"?>
<svg width="15px" height="15px" viewBox="0 0 15 15" version="1.1" xmlns="http://www.w3.org/2000/svg" xmlns:xlink="http://www.w3.org/1999/xlink">
    <!-- Generator: Sketch 49.2 (51160) - http://www.bohemiancoding.com/sketch -->
    <title>puce1</title>
    <desc>Created with Sketch.</desc>
    <defs></defs>
    <g id="Page-1" stroke="none" stroke-width="1" fill="none" fill-rule="evenodd">
        <g id="1-HOMEPAGE" transform="translate(-973.000000, -5729.000000)" fill="#F7B71B" fill-rule="nonzero">
            <g id="Page-1" transform="translate(0.000000, 5049.000000)">
                <g id="Group-14">
                    <g id="footer" transform="translate(725.000000, 665.000000)">
                        <g id="Group-12" transform="translate(248.000000, 0.000000)">
                            <path d="M5.5715725,29.4087449 C2.31706996,28.9765197 -0.697087956,26.1439008 0.14214817,22.662944 C1.1429274,19.5756209 3.57395411,17.696213 5.44943015,15.6006925 C5.99127036,15.2757668 6.60176889,15.0764468 7.23428445,15.0179602 C8.52476389,14.9129553 9.81022284,15.2709228 10.8512739,16.0251994 C11.3752087,16.3973021 11.8207357,16.8651293 12.1633192,17.4029173 C14.5549451,20.9379022 17.1238745,27.0932526 12.1633192,29.5206604 C10.7006379,30.0951245 9.07985593,30.1551329 7.57707103,29.6904631 C6.9663593,29.6325758 6.36352772,29.536097 5.5715725,29.4087449 Z" id="puce1"></path>
                        </g>
                    </g>
                </g>
            </g>
        </g>
    </g>
</svg>
